X:6
T:Clawdd Offa [Offa's Dyke]
R:jig
O:Wales
Z: John Chambers <jc@trillian.mit.edu>
M:6/8
L:1/8
K:D
|: A \
| d2d A2G | FA2- A2A | d2d F2G | A3- A2A \
| d2d Bcd | e>dc A2A | B>cd e2c | d3- d2 :|
|| c/d/ \
| e2e c2d | e3- ede | f2f d2e | f3- f2e \
| d>cB A2A | B>AG F2A | B>cd e2c | d3- d2 ||
|| d \
| d2c Bde | f>ed B2A | d2f e>dc | B3 A2A \
| d>cB A2A | B>AG F2A | B>cd e2c | d3- d2 |]
